X: 1873
T: Titrer Yüreğim
C: Emin Ongan
O: Turkey
F: http://compmusic.upf.edu/node/140
N: nisaburek--sarki--curcuna--titrer_yuregim--emin_ongan
N: makam= nisaburek
N: form= sarki
N: usul= curcuna = 10/8
M: 10/8
L: 1/16
K: C ^9/8f ^3/4c ^3/4g 
Q: 1/4=168
%%MIDI tuningsystem comma53
e4 d2e4e2 a2a2 f2e2  | e2d2 f2e2 d2ed cBA6  | \
w:  *  Tit *  rer   |  yü *  *  re *  ğim   | 
d6e4e4e4d2  | 
w:  is mi ni  an  | 
e4 d2a4g2 f2g2 f2e2  | e8-e2e2 d2c2 B2A2  | \
w:  sam  *  ke de *  rin  |  den    | 
A4 e2e2 c2d4c2 B2A2  | 
w:  *  ke de *  rin  | 
e16-e4  | e2df e2d2 c2ed cBA3ecd  | e4 d2e4e2 a2a2 f2e2  | 
w:  den    |  SAZ  |  *  Tit *  rer   | 
e2d2 f2e2 d2ed cBA6  | d6e4e4e4d2  | \
w:  yü *  *  re *  ğim   |  is mi ni  an  | 
e4 d2a4g2 f2g2 f2e2  | 
w:  sam  *  ke de *  rin  | 
e8-e2e2 d2c2 B2A2  | A4 e2e2 c2d4c2 B2A2  | e16-e4  | \
w:  den    |  *  ke de *  rin  |  den    | 
e2df e2d2 c2ed cBAB cdce  | 
w:  SAZ  | 
d4 c2d4d8c2  | d2c2 e2e2 d2ed cBc6  | \
w:  *  Dal *  sam   |  gö *  *  zü *  nün   | 
d2c2 B2B4c2 d2{f}ed cBA2  | 
w:  ren *  *  gi ne  *  *  bir   | 
e2d2 f2e2 d2d2 c2c2 B2A2  | d8-d2d2 e2ed cBc2  | \
w:  lâh *  *  za  *  de *  rin  |  den    | 
d2c2 B2B4B2 e2e2 dcBc  | 
w:  lâh *  *  za  de *  rin  | 
A16-A4  | e2df e2d2 c2ed cBAB cdce  | \
w:  den    |  SAZ  | 
d4 c2d4d8c2  | 
w:  *  Dal *  sam   | 
d2c2 e2e2 d2ed cBc6  | d2c2 B2B4c2 d2{f}ed cBA2  | 
w:  gö *  *  zü *  nün   |  ren *  *  gi ne  *  *  bir   | 
e2d2 f2e2 d2d2 c2c2 B2A2  | d8-d2d2 e2ed cBc2  | \
w:  lâh *  *  za  *  de *  rin  |  den    | 
d2c2 B2B4B2 e2e2 dcBc  | 
w:  lâh *  *  za  de *  rin  | 
A16-A4  | a8 b2c'b aba6  | z4 e2a4a8b2  | \
w:  den    |  SAZ  |  Sön *  mez   | 
c'4 b2c'2 d'2c'2 b2a6  | 
w:  a *  te *  şin   | 
{d'}c'3b a2a4a4a4=g2  | =g6g4g4g2 fef2  | \
w:  *  geç *  *  se  de  yıl  |  lar  ü ze rin  | 
a8-a2a2 g2f2 e2d2  | 
w:  den   yıl  | 
e2f2 g2a2 b2a2 g2f2 e2d2  | a16-a4  | \
w:  lar  *  *  ü *  ze *  rin  |  den    | 
b4 c'2b2 a2c'b aba6  | 
w:  SAZ  | 
z4 ^g2a2 _7/8b2b8a2  | a2^g2 _7/8b2b2 a2a2 g2a6  | \
w:  Sön *  *  mez   |  a *  *  te *  şin   | 
a2^g2 _7/8b2b2 a2a2 g2g2 f2e2  | 
w:  geç *  *  se  *  de  *  yıl  | 
e2f2 g2a4g2 f2g2 f2e2  | e8-e2e2 d2c2 B2A2  | \
w:  lar  *  *  ü ze *  rin  |  den   yıl  | 
B2c2 d2e2 f2e2 d2c2 B2A2  | 
w:  lar  *  *  ü *  ze *  rin  | 
e16-e4  | e2df e2d2 c2ed cBAB cdce  | \
w:  den    |  SAZ  | 
d4 c2d4d8c2  | 
w:  *  Dal *  sam   | 
d2c2 e2e2 d2ed cBc6  | d2c2 B2B4c2 d2{f}ed cBA2  | 
w:  gö *  *  zü *  nün   |  ren *  *  gi ne  *  *  bir   | 
e2d2 f2e2 d2d2 c2c2 B2A2  | d8-d2d2 e2ed cBc2  | \
w:  lâh *  *  za  *  de *  rin  |  den    | 
d2c2 B2B4B2 e2e2 dcBc  | 
w:  lâh *  *  za  de *  rin  | 
A16-A4  | |


